icons/square/48/jxplorer.svg

<svg width="48" height="48" version="1.1" viewBox="0 0 48 48" xmlns="http://www.w3.org/2000/svg">
 <defs>
  <linearGradient id="linearGradient4501" x1="-47" x2="-1" y1="2.8779e-15" y2="6.1232e-17" gradientUnits="userSpaceOnUse">
   <stop style="stop-color:#9ddfae" offset="0"/>
   <stop style="stop-color:#ace4ba" offset="1"/>
  </linearGradient>
 </defs>
 <g transform="translate(0 3.949e-5)">
  <path d="m1 43v0.25c0 2.216 1.784 4 4 4h38c2.216 0 4-1.784 4-4v-0.25c0 2.216-1.784 4-4 4h-38c-2.216 0-4-1.784-4-4zm0 0.5v0.5c0 2.216 1.784 4 4 4h38c2.216 0 4-1.784 4-4v-0.5c0 2.216-1.784 4-4 4h-38c-2.216 0-4-1.784-4-4z" style="opacity:.02"/>
  <path d="m1 43.25v0.25c0 2.216 1.784 4 4 4h38c2.216 0 4-1.784 4-4v-0.25c0 2.216-1.784 4-4 4h-38c-2.216 0-4-1.784-4-4z" style="opacity:.05"/>
  <path d="m1 43v0.25c0 2.216 1.784 4 4 4h38c2.216 0 4-1.784 4-4v-0.25c0 2.216-1.784 4-4 4h-38c-2.216 0-4-1.784-4-4z" style="opacity:.1"/>
 </g>
 <rect transform="rotate(-90)" x="-47" y="1" width="46" height="46" rx="4" style="fill:url(#linearGradient4501)"/>
 <g transform="translate(0 3.949e-5)">
  <g transform="translate(0 -1004.4)">
   <path d="m1 1043.4v4c0 2.216 1.784 4 4 4h38c2.216 0 4-1.784 4-4v-4c0 2.216-1.784 4-4 4h-38c-2.216 0-4-1.784-4-4z" style="opacity:.1"/>
  </g>
 </g>
 <path d="m24 11a3 3 0 0 0-3 3 3 3 0 0 0 0.424 1.529l-1.384 1.661a3 3 0 0 0-1.04-0.19 3 3 0 0 0-3 3 3 3 0 0 0 0.424 1.529l-1.384 1.661a3 3 0 0 0-1.04-0.19 3 3 0 0 0-3 3 3 3 0 0 0 3 3 3 3 0 0 0 3-3 3 3 0 0 0-0.424-1.529l1.383-1.658a3 3 0 0 0 1.041 0.187 3 3 0 0 0 1.04-0.189l1.385 1.66a3 3 0 0 0-0.425 1.529 3 3 0 0 0 0.424 1.529l-1.384 1.661a3 3 0 0 0-1.04-0.19 3 3 0 0 0-3 3 3 3 0 0 0 3 3 3 3 0 0 0 3-3 3 3 0 0 0-0.424-1.529l1.383-1.658a3 3 0 0 0 1.041 0.187 3 3 0 0 0 1.04-0.189l1.385 1.66a3 3 0 0 0-0.425 1.529 3 3 0 0 0 3 3 3 3 0 0 0 3-3 3 3 0 0 0-3-3 3 3 0 0 0-1.041 0.189l-1.383-1.66a3 3 0 0 0 0.424-1.529 3 3 0 0 0-3-3 3 3 0 0 0-1.041 0.19l-1.383-1.661a3 3 0 0 0 0.424-1.529 3 3 0 0 0-0.424-1.529l1.383-1.658a3 3 0 0 0 1.041 0.187 3 3 0 0 0 1.04-0.189l1.385 1.66a3 3 0 0 0-0.425 1.529 3 3 0 0 0 3 3 3 3 0 0 0 1.039-0.189l1.385 1.66a3 3 0 0 0-0.424 1.529 3 3 0 0 0 3 3 3 3 0 0 0 3-3 3 3 0 0 0-3-3 3 3 0 0 0-1.039 0.189l-1.385-1.66a3 3 0 0 0 0.424-1.529 3 3 0 0 0-3-3 3 3 0 0 0-1.039 0.19l-1.385-1.661a3 3 0 0 0 0.424-1.529 3 3 0 0 0-3-3" style="opacity:.1"/>
 <path d="m24 10a3 3 0 0 0-3 3 3 3 0 0 0 3 3 3 3 0 0 0 3-3 3 3 0 0 0-3-3zm-5 6a3 3 0 0 0-3 3 3 3 0 0 0 3 3 3 3 0 0 0 3-3 3 3 0 0 0-3-3zm10 0a3 3 0 0 0-3 3 3 3 0 0 0 3 3 3 3 0 0 0 3-3 3 3 0 0 0-3-3zm-15 6a3 3 0 0 0-3 3 3 3 0 0 0 3 3 3 3 0 0 0 3-3 3 3 0 0 0-3-3zm10 0a3 3 0 0 0-3 3 3 3 0 0 0 3 3 3 3 0 0 0 3-3 3 3 0 0 0-3-3zm10 0a3 3 0 0 0-3 3 3 3 0 0 0 3 3 3 3 0 0 0 3-3 3 3 0 0 0-3-3zm-15 6a3 3 0 0 0-3 3 3 3 0 0 0 3 3 3 3 0 0 0 3-3 3 3 0 0 0-3-3zm10 0a3 3 0 0 0-3 3 3 3 0 0 0 3 3 3 3 0 0 0 3-3 3 3 0 0 0-3-3z" style="fill:#358abf"/>
 <path d="m24 11.438-10.768 12.922 1.535 1.281 4.232-5.078 3.699 4.438-4.467 5.359 1.535 1.281 4.232-5.078 4.232 5.078 1.535-1.281-9.467-11.359 3.699-4.438 9.531 11.438 0.938-2-10.469-12.563" style="color-rendering:auto;color:#000000;fill-rule:evenodd;fill:#358abf;image-rendering:auto;isolation:auto;mix-blend-mode:normal;shape-rendering:auto;solid-color:#000000;white-space:normal" isolation="auto" mix-blend-mode="normal"/>
</svg>

<svg width="48" height="48" version="1.1" viewBox="0 0 48 48.000001" xmlns="http://www.w3.org/2000/svg">
 <defs>
  <linearGradient id="linearGradient4501" x1="-47" x2="-1" y1="2.8779e-15" y2="6.1232e-17" gradientUnits="userSpaceOnUse">
   <stop style="stop-color:#9ddfae" offset="0"/>
   <stop style="stop-color:#ace4ba" offset="1"/>
  </linearGradient>
 </defs>
 <g transform="translate(0 3.949e-5)">
  <path d="m1 43v0.25c0 2.216 1.784 4 4 4h38c2.216 0 4-1.784 4-4v-0.25c0 2.216-1.784 4-4 4h-38c-2.216 0-4-1.784-4-4zm0 0.5v0.5c0 2.216 1.784 4 4 4h38c2.216 0 4-1.784 4-4v-0.5c0 2.216-1.784 4-4 4h-38c-2.216 0-4-1.784-4-4z" style="opacity:.02"/>
  <path d="m1 43.25v0.25c0 2.216 1.784 4 4 4h38c2.216 0 4-1.784 4-4v-0.25c0 2.216-1.784 4-4 4h-38c-2.216 0-4-1.784-4-4z" style="opacity:.05"/>
  <path d="m1 43v0.25c0 2.216 1.784 4 4 4h38c2.216 0 4-1.784 4-4v-0.25c0 2.216-1.784 4-4 4h-38c-2.216 0-4-1.784-4-4z" style="opacity:.1"/>
 </g>
 <rect transform="rotate(-90)" x="-47" y="1" width="46" height="46" rx="4" style="fill:url(#linearGradient4501)"/>
 <g transform="translate(0 3.949e-5)">
  <g transform="translate(0 -1004.4)">
   <path d="m1 1043.4v4c0 2.216 1.784 4 4 4h38c2.216 0 4-1.784 4-4v-4c0 2.216-1.784 4-4 4h-38c-2.216 0-4-1.784-4-4z" style="opacity:.1"/>
  </g>
 </g>
 <path d="m 24,11 a 3,3 0 0 0 -3,3 3,3 0 0 0 0.424,1.529 L 20.04,17.19 A 3,3 0 0 0 19,17 a 3,3 0 0 0 -3,3 3,3 0 0 0 0.424,1.529 L 15.04,23.19 A 3,3 0 0 0 14,23 a 3,3 0 0 0 -3,3 3,3 0 0 0 3,3 3,3 0 0 0 3,-3 3,3 0 0 0 -0.424,-1.529 l 1.383,-1.658 A 3,3 0 0 0 19,23 3,3 0 0 0 20.04,22.811 l 1.385,1.66 A 3,3 0 0 0 21,26 3,3 0 0 0 21.424,27.529 L 20.04,29.19 A 3,3 0 0 0 19,29 a 3,3 0 0 0 -3,3 3,3 0 0 0 3,3 3,3 0 0 0 3,-3 3,3 0 0 0 -0.424,-1.529 l 1.383,-1.658 A 3,3 0 0 0 24,29 3,3 0 0 0 25.04,28.811 l 1.385,1.66 A 3,3 0 0 0 26,32 a 3,3 0 0 0 3,3 3,3 0 0 0 3,-3 3,3 0 0 0 -3,-3 3,3 0 0 0 -1.041,0.189 l -1.383,-1.66 A 3,3 0 0 0 27,26 3,3 0 0 0 24,23 3,3 0 0 0 22.959,23.19 L 21.576,21.529 A 3,3 0 0 0 22,20 3,3 0 0 0 21.576,18.471 l 1.383,-1.658 A 3,3 0 0 0 24,17 3,3 0 0 0 25.04,16.811 l 1.385,1.66 A 3,3 0 0 0 26,20 a 3,3 0 0 0 3,3 3,3 0 0 0 1.039,-0.189 l 1.385,1.66 A 3,3 0 0 0 31,26 a 3,3 0 0 0 3,3 3,3 0 0 0 3,-3 3,3 0 0 0 -3,-3 3,3 0 0 0 -1.039,0.189 l -1.385,-1.66 A 3,3 0 0 0 32,20 3,3 0 0 0 29,17 3,3 0 0 0 27.961,17.19 L 26.576,15.529 A 3,3 0 0 0 27,14 3,3 0 0 0 24,11" style="opacity:.1"/>
 <path d="m24 10a3 3 0 0 0 -3 3 3 3 0 0 0 3 3 3 3 0 0 0 3 -3 3 3 0 0 0 -3 -3zm-5 6a3 3 0 0 0 -3 3 3 3 0 0 0 3 3 3 3 0 0 0 3 -3 3 3 0 0 0 -3 -3zm10 0a3 3 0 0 0 -3 3 3 3 0 0 0 3 3 3 3 0 0 0 3 -3 3 3 0 0 0 -3 -3zm-15 6a3 3 0 0 0 -3 3 3 3 0 0 0 3 3 3 3 0 0 0 3 -3 3 3 0 0 0 -3 -3zm10 0a3 3 0 0 0 -3 3 3 3 0 0 0 3 3 3 3 0 0 0 3 -3 3 3 0 0 0 -3 -3zm10 0a3 3 0 0 0 -3 3 3 3 0 0 0 3 3 3 3 0 0 0 3 -3 3 3 0 0 0 -3 -3zm-15 6a3 3 0 0 0 -3 3 3 3 0 0 0 3 3 3 3 0 0 0 3 -3 3 3 0 0 0 -3 -3zm10 0a3 3 0 0 0 -3 3 3 3 0 0 0 3 3 3 3 0 0 0 3 -3 3 3 0 0 0 -3 -3z" style="fill:#358abf"/>
 <path d="m24 11.438-10.768 12.922 1.535 1.281 4.232-5.078 3.699 4.438-4.467 5.359 1.535 1.281 4.232-5.078 4.232 5.078 1.535-1.281-9.467-11.359 3.699-4.438 9.531 11.438 0.938-2-10.469-12.563" style="color-rendering:auto;color:#000000;fill-rule:evenodd;fill:#358abf;image-rendering:auto;isolation:auto;mix-blend-mode:normal;shape-rendering:auto;solid-color:#000000;white-space:normal" isolation="auto" mix-blend-mode="normal"/>
</svg>
